icon_installer/data/icons/scalable/actions/show-gamepad2-symbolic.svg

<?xml version="1.0" encoding="UTF-8"?>
<svg height="16px" viewBox="0 0 16 16" width="16px" xmlns="http://www.w3.org/2000/svg">
    <path d="m 4 2 c -1.660156 0 -2.632812 1.300781 -3 3 l -1 5 c -0.28125 1.457031 1.339844 3 3 3 s 3 -1.339844 3 -3 h 0.003906 c 0.019532 -1.085938 0.90625 -1.957031 1.996094 -1.957031 c 1.089844 -0.003907 1.976562 0.867187 2 1.957031 c 0 1.660156 1.339844 3 3 3 s 3.324219 -1.371094 3 -3 l -1 -5 c -0.324219 -1.628906 -1.339844 -3 -3 -3 z m 0.25 2 h 0.5 c 0.136719 0 0.25 0.113281 0.25 0.25 v 0.75 h 0.75 c 0.136719 0 0.25 0.113281 0.25 0.25 v 0.5 c 0 0.136719 -0.113281 0.25 -0.25 0.25 h -0.75 v 0.75 c 0 0.136719 -0.113281 0.25 -0.25 0.25 h -0.5 c -0.136719 0 -0.25 -0.113281 -0.25 -0.25 v -0.75 h -0.75 c -0.136719 0 -0.25 -0.113281 -0.25 -0.25 v -0.5 c 0 -0.136719 0.113281 -0.25 0.25 -0.25 h 0.75 v -0.75 c 0 -0.136719 0.113281 -0.25 0.25 -0.25 z m 5.71875 -0.03125 c 0.589844 0 1.0625 0.476562 1.0625 1.0625 s -0.472656 1.0625 -1.0625 1.0625 c -0.585938 0 -1.0625 -0.476562 -1.0625 -1.0625 s 0.476562 -1.0625 1.0625 -1.0625 z m 3.011719 1.9375 c 0.59375 0 1.078125 0.484375 1.078125 1.078125 c 0 0.597656 -0.484375 1.078125 -1.078125 1.078125 s -1.078125 -0.480469 -1.078125 -1.078125 c 0 -0.59375 0.484375 -1.078125 1.078125 -1.078125 z m 0 0" fill="#222222"/>
</svg>

<svg xmlns="http://www.w3.org/2000/svg" width="16" height="16"><path fill="#222" d="M4 2C2.34 2 1.367 3.3 1 5l-1 5c-.281 1.457 1.34 3 3 3s3-1.34 3-3h.004A1.994 1.994 0 0 1 8 8.043 1.995 1.995 0 0 1 10 10c0 1.66 1.34 3 3 3s3.324-1.371 3-3l-1-5c-.324-1.629-1.34-3-3-3zm.25 2h.5c.137 0 .25.113.25.25V5h.75c.137 0 .25.113.25.25v.5c0 .137-.113.25-.25.25H5v.75c0 .137-.113.25-.25.25h-.5A.252.252 0 0 1 4 6.75V6h-.75A.252.252 0 0 1 3 5.75v-.5c0-.137.113-.25.25-.25H4v-.75c0-.137.113-.25.25-.25zm5.719-.031c.59 0 1.062.476 1.062 1.062S10.56 6.094 9.97 6.094a1.064 1.064 0 0 1 0-2.125zm3.011 1.937a1.078 1.078 0 1 1 0 2.157 1.078 1.078 0 0 1 0-2.157zm0 0"/></svg>
